svgs/nothingx.svg

<svg xmlns="http://www.w3.org/2000/svg" viewBox="0 0 192 192"><path fill="none" stroke="#000" stroke-linecap="round" stroke-linejoin="round" stroke-width="12" d="m165.425 116.764-90.19-90.189c-13.437-13.437-35.223-13.437-48.66 0-13.437 13.437-13.437 35.223 0 48.66l90.189 90.19c13.438 13.437 35.224 13.437 48.661 0 13.437-13.437 13.437-35.223 0-48.661Z"/><path fill="none" stroke="#000" stroke-linecap="round" stroke-linejoin="round" stroke-width="12" d="m144.661 96 20.764-20.765c13.437-13.437 13.437-35.223 0-48.66-13.437-13.437-35.223-13.437-48.661 0l-20.83 20.831M47.339 96l-20.764 20.764c-13.437 13.438-13.437 35.224 0 48.661 13.437 13.437 35.223 13.437 48.66 0l20.699-20.698m44.524-20.819a17.189 17.189 0 1 0 0 34.379c4.557 0 8.932-1.812 12.155-5.034a17.2 17.2 0 0 0 5.035-12.155c0-4.558-1.813-8.933-5.035-12.155a17.195 17.195 0 0 0-12.155-5.035Z"/></svg>

<svg
    xmlns="http://www.w3.org/2000/svg"
    viewBox="0 0 192 192"
    id="vector">
    <path
        id="path"
        d="M 165.425 116.764 L 75.235 26.575 C 61.798 13.138 40.012 13.138 26.575 26.575 C 13.138 40.012 13.138 61.798 26.575 75.235 L 116.764 165.425 C 130.202 178.862 151.988 178.862 165.425 165.425 C 178.862 151.988 178.862 130.202 165.425 116.764 Z"
        fill="none"
        stroke="#000000"
        stroke-width="12"
        stroke-linecap="round"
        stroke-linejoin="round"/>
    <path
        id="path_1"
        d="M 144.661 96 L 165.425 75.235 C 178.862 61.798 178.862 40.012 165.425 26.575 C 151.988 13.138 130.202 13.138 116.764 26.575 L 95.934 47.406 M 47.339 96 L 26.575 116.764 C 13.138 130.202 13.138 151.988 26.575 165.425 C 40.012 178.862 61.798 178.862 75.235 165.425 L 95.934 144.727 M 140.458 123.908 C 136.821 123.896 133.272 125.039 130.326 127.171 C 127.379 129.304 125.184 132.317 124.058 135.775 C 122.932 139.234 122.932 142.962 124.058 146.42 C 125.184 149.878 127.379 152.892 130.326 155.024 C 133.272 157.156 136.821 158.299 140.458 158.287 C 145.015 158.287 149.39 156.475 152.613 153.253 C 155.835 150.03 157.648 145.655 157.648 141.098 C 157.648 136.54 155.835 132.165 152.613 128.943 C 149.39 125.72 145.015 123.908 140.458 123.908 Z"
        fill="none"
        stroke="#000000"
        stroke-width="12"
        stroke-linecap="round"
        stroke-linejoin="round"/>
</svg>
